X: 100011
M: C|
L: 1/8
K: Bb
((3uFGA) |\
|: (uF>D) |\
(B,>D)F>B (d>B)A>B | (C>F)A>c e>c~c2 | (d>f)b>a (g>f)e>d | (3cdc (3BAG (3FGF (3EDC |
(B,>D)F>B (d>B)A>B | (C>F)A>c ec~c2 | (d>f)b>f (g>e)c>A | c2B2 B2 :|


